assets/icons/Github.svg

<svg
  width="1em"
  height="1em"
  viewBox="0 0 24 24"
  fill="none"
  xmlns="http://www.w3.org/2000/svg"
>
  <g clip-path="url(#clip0_44_2)">
    <path
      d="M6.31499 6.17605C6.06499 5.53805 6.07499 4.80905 6.18599 4.14205C6.95018 4.37103 7.66788 4.73326 8.30598 5.21205C8.58598 5.42605 8.95299 5.49505 9.29499 5.39205C10.1726 5.12949 11.084 4.99741 12 5.00005C12.961 5.00005 13.874 5.14005 14.703 5.39105C15.045 5.49505 15.412 5.42505 15.691 5.21105C16.3288 4.73237 17.0461 4.37013 17.81 4.14105C17.921 4.80805 17.93 5.53705 17.682 6.17405C17.532 6.55805 17.607 7.00005 17.89 7.31405C18.614 8.11705 19 9.04005 19 10.0001C19 12.1141 17.03 14.1871 13.866 14.8181C13.074 14.9761 12.765 15.9731 13.371 16.5441C13.76 16.9101 14 17.4261 14 18.0001V21.0001C14 21.2653 14.1053 21.5196 14.2929 21.7072C14.4804 21.8947 14.7348 22.0001 15 22.0001C15.2652 22.0001 15.5196 21.8947 15.7071 21.7072C15.8946 21.5196 16 21.2653 16 21.0001V18.0001C16 17.4301 15.88 16.8881 15.666 16.3971C18.683 15.3501 21 12.9931 21 10.0001C21 8.65305 20.516 7.41505 19.713 6.37805C19.923 5.55805 19.904 4.73205 19.824 4.09805C19.753 3.53005 19.654 2.78605 19.254 2.34205C18.659 1.68305 17.674 2.07105 16.974 2.31005C16.2231 2.56414 15.5087 2.91546 14.849 3.35505C13.918 3.11746 12.9608 2.99819 12 3.00005C11.006 3.00005 10.047 3.12505 9.14899 3.35605C8.48931 2.91645 7.7749 2.56513 7.02399 2.31105C6.32399 2.07105 5.33799 1.68305 4.74299 2.34205C4.33499 2.79405 4.24999 3.47905 4.17699 4.06105L4.17199 4.09905C4.09199 4.73405 4.07399 5.56105 4.28399 6.38205C3.48399 7.41805 2.99999 8.65405 2.99999 10.0001C2.99999 12.9921 5.31698 15.3501 8.33398 16.3971C8.11561 16.8963 8.00194 17.4351 7.99999 17.9801L7.83198 18.0141C7.11498 18.1131 6.65599 18.0241 6.34399 17.8921C5.58399 17.5701 5.19199 16.7591 4.71399 16.1391C4.41599 15.7541 3.98199 15.2731 3.31599 15.0511C3.19136 15.0096 3.05978 14.993 2.92876 15.0024C2.79775 15.0117 2.66985 15.0468 2.55239 15.1056C2.31515 15.2243 2.13479 15.4324 2.05099 15.6841C1.96718 15.9357 1.98678 16.2104 2.1055 16.4477C2.22421 16.6849 2.43229 16.8652 2.68399 16.9491C3.24199 17.1351 3.62799 18.0911 3.98199 18.5151C4.35499 18.9631 4.85098 19.4311 5.56199 19.7331C6.24398 20.0231 7.04499 20.1261 7.99999 20.0091V21.0001C7.99999 21.2653 8.10534 21.5196 8.29288 21.7072C8.48042 21.8947 8.73477 22.0001 8.99999 22.0001C9.2652 22.0001 9.51956 21.8947 9.70709 21.7072C9.89463 21.5196 9.99998 21.2653 9.99998 21.0001V18.0001C9.99998 17.4261 10.24 16.9101 10.629 16.5441C11.236 15.9721 10.926 14.9761 10.134 14.8181C6.96898 14.1871 4.99999 12.1141 4.99999 10.0001C4.99999 9.04205 5.38499 8.11905 6.10799 7.31605C6.39099 7.00205 6.46499 6.56005 6.31499 6.17605Z"
      fill="currentColor"
    />
  </g>
  <defs>
    <clipPath id="clip0_44_2">
      <rect width="24" height="24" fill="white" />
    </clipPath>
  </defs>
</svg>

<svg
  xmlns="http://www.w3.org/2000/svg"
  width="1em"
  height="1em"
  viewBox="0 0 24 24"
>
  <g fill="none">
    <path
      d="M24 0v24H0V0h24ZM12.593 23.258l-.011.002l-.071.035l-.02.004l-.014-.004l-.071-.035c-.01-.004-.019-.001-.024.005l-.004.01l-.017.428l.005.02l.01.013l.104.074l.015.004l.012-.004l.104-.074l.012-.016l.004-.017l-.017-.427c-.002-.01-.009-.017-.017-.018Zm.265-.113l-.013.002l-.185.093l-.01.01l-.003.011l.018.43l.005.012l.008.007l.201.093c.012.004.023 0 .029-.008l.004-.014l-.034-.614c-.003-.012-.01-.02-.02-.022Zm-.715.002a.023.023 0 0 0-.027.006l-.006.014l-.034.614c0 .012.007.02.017.024l.015-.002l.201-.093l.01-.008l.004-.011l.017-.43l-.003-.012l-.01-.01l-.184-.092Z"
    />
    <path
      fill="currentColor"
      d="M6.315 6.176c-.25-.638-.24-1.367-.129-2.034a6.77 6.77 0 0 1 2.12 1.07c.28.214.647.283.989.18A9.343 9.343 0 0 1 12 5c.961 0 1.874.14 2.703.391c.342.104.709.034.988-.18a6.77 6.77 0 0 1 2.119-1.07c.111.667.12 1.396-.128 2.033c-.15.384-.075.826.208 1.14C18.614 8.117 19 9.04 19 10c0 2.114-1.97 4.187-5.134 4.818c-.792.158-1.101 1.155-.495 1.726c.389.366.629.882.629 1.456v3a1 1 0 0 0 2 0v-3c0-.57-.12-1.112-.334-1.603C18.683 15.35 21 12.993 21 10c0-1.347-.484-2.585-1.287-3.622c.21-.82.191-1.646.111-2.28c-.071-.568-.17-1.312-.57-1.756c-.595-.659-1.58-.271-2.28-.032a9.081 9.081 0 0 0-2.125 1.045A11.432 11.432 0 0 0 12 3c-.994 0-1.953.125-2.851.356a9.08 9.08 0 0 0-2.125-1.045c-.7-.24-1.686-.628-2.281.031c-.408.452-.493 1.137-.566 1.719l-.005.038c-.08.635-.098 1.462.112 2.283C3.484 7.418 3 8.654 3 10c0 2.992 2.317 5.35 5.334 6.397A3.986 3.986 0 0 0 8 17.98l-.168.034c-.717.099-1.176.01-1.488-.122c-.76-.322-1.152-1.133-1.63-1.753c-.298-.385-.732-.866-1.398-1.088a1 1 0 0 0-.632 1.898c.558.186.944 1.142 1.298 1.566c.373.448.869.916 1.58 1.218c.682.29 1.483.393 2.438.276V21a1 1 0 0 0 2 0v-3c0-.574.24-1.09.629-1.456c.607-.572.297-1.568-.495-1.726C6.969 14.187 5 12.114 5 10c0-.958.385-1.881 1.108-2.684c.283-.314.357-.756.207-1.14Z"
    />
  </g>
</svg>
